assets/img/tilda.svg

<svg xmlns="http://www.w3.org/2000/svg" width="16" height="7"><path fill-rule="evenodd" fill="#7E8C9D" d="M5.2 7.2c-.287 0-.374-.201-.457-.204C2.177 6.864.592 4.9.42 4.676c-.163-.88.21-2.121.434-2.771.91-.647 2.636-.467 2.876.399.154.187.704.876 1.245 1.076.549.48 1.18-.885 1.503-1.222C8.289.267 10.65.55 11.257.2c2.566-.067 4.149 2.78 4.322 2.121.678.881 1.051 2.121-.434 3.599-.918-.175-2.211-.363-2.889-1.244-.135-.164-.688-.696-1.006-.717-.771-.044-1.405.542-1.729.881C7.838 6.597 6.175 7.2 5.2 7.2Z"/></svg>

<svg 
 xmlns="http://www.w3.org/2000/svg"
 xmlns:xlink="http://www.w3.org/1999/xlink"
 width="16px" height="7px">
<path fill-rule="evenodd"  fill="rgb(126, 140, 157)"
 d="M5.2,7.2 C4.913,7.2 4.826,6.999 4.743,6.996 C2.177,6.864 0.592,4.900 0.420,4.676 C0.257,3.796 0.63,2.555 0.854,1.905 C1.764,1.258 3.49,1.438 3.730,2.304 C3.884,2.491 4.434,3.18 4.975,3.38 C5.524,3.86 6.155,2.495 6.478,2.158 C8.289,0.267 10.65,0.55 11.257,0.2 C13.823,0.133 15.406,2.98 15.579,2.321 C16.257,3.202 16.63,4.442 15.145,5.92 C14.227,5.745 12.934,5.557 12.256,4.676 C12.121,4.512 11.568,3.980 11.25,3.959 C10.479,3.915 9.845,4.501 9.521,4.840 C7.838,6.597 6.175,7.2 5.2,7.2 Z"/>
</svg>
